Numix-GalliumOS/24/status/user-offline.svg

<?xml version="1.0" encoding="UTF-8" standalone="no"?>
<svg
   xmlns:dc="http://purl.org/dc/elements/1.1/"
   xmlns:cc="http://creativecommons.org/ns#"
   xmlns:rdf="http://www.w3.org/1999/02/22-rdf-syntax-ns#"
   xmlns:svg="http://www.w3.org/2000/svg"
   xmlns="http://www.w3.org/2000/svg"
   xmlns:sodipodi="http://sodipodi.sourceforge.net/DTD/sodipodi-0.dtd"
   xmlns:inkscape="http://www.inkscape.org/namespaces/inkscape"
   width="24"
   viewBox="0 0 24 24"
   height="24"
   id="svg2"
   version="1.1"
   inkscape:version="0.91 r"
   sodipodi:docname="user-offline.svg">
  <metadata
     id="metadata18">
    <rdf:RDF>
      <cc:Work
         rdf:about="">
        <dc:format>image/svg+xml</dc:format>
        <dc:type
           rdf:resource="http://purl.org/dc/dcmitype/StillImage" />
        <dc:title />
      </cc:Work>
    </rdf:RDF>
  </metadata>
  <sodipodi:namedview
     pagecolor="#ffffff"
     bordercolor="#666666"
     borderopacity="1"
     objecttolerance="10"
     gridtolerance="10"
     guidetolerance="10"
     inkscape:pageopacity="0"
     inkscape:pageshadow="2"
     inkscape:window-width="1280"
     inkscape:window-height="998"
     id="namedview16"
     showgrid="true"
     inkscape:zoom="34.147786"
     inkscape:cx="12.117138"
     inkscape:cy="12"
     inkscape:window-x="0"
     inkscape:window-y="0"
     inkscape:window-maximized="1"
     inkscape:current-layer="svg2">
    <inkscape:grid
       type="xygrid"
       id="grid3029" />
  </sodipodi:namedview>
  <defs
     id="defs4" />
  <g
     id="g3873"
     transform="translate(4,4)"
     style="fill:#ececec;fill-opacity:1">
    <path
       id="path2999"
       d="M 8,0 C 3.581722,0 0,3.1340067 0,7 c 0,3.865993 3.581722,7 8,7 4.418278,0 8,-3.134007 8,-7 C 16,3.1340067 12.418278,0 8,0 z M 5.9375,4 C 6.1552814,3.975802 6.3829163,4.039166 6.53125,4.1875 L 8,5.65625 9.46875,4.1875 c 0.2966674,-0.2966674 0.847916,-0.2458342 1.21875,0.125 0.370834,0.3708342 0.421667,0.9220826 0.125,1.21875 L 9.34375,7 10.8125,8.46875 c 0.296667,0.2966674 0.245834,0.8479158 -0.125,1.21875 -0.370834,0.370834 -0.9220826,0.421667 -1.21875,0.125 L 8,8.34375 6.53125,9.8125 C 6.2345826,10.109167 5.6833342,10.058334 5.3125,9.6875 4.9416658,9.3166658 4.8908326,8.7654174 5.1875,8.46875 L 6.65625,7 5.1875,5.53125 C 4.8908326,5.2345826 4.9416658,4.6833342 5.3125,4.3125 5.4979171,4.1270829 5.7197186,4.0241979 5.9375,4 z"
       style="fill:#ececec;fill-opacity:1;stroke:none"
       inkscape:connector-curvature="0" />
    <path
       sodipodi:nodetypes="cccc"
       inkscape:connector-curvature="0"
       id="path3001"
       d="M 8.3362186,12 14,16 13,10 z"
       style="fill:#ececec;fill-opacity:1;stroke:none" />
  </g>
</svg>

<svg xmlns="http://www.w3.org/2000/svg" viewBox="0 0 24 24">
 <g transform="translate(4,4)" style="fill:#dedede;fill-opacity:1">
  <path d="m 8 0 c -4.418 0 -8 3.134 -8 7 c 0 3.866 3.582 7 8 7 4.418 0 8 -3.134 8 -7 c 0 -3.866 -3.582 -7 -8 -7 z m -2.063 4 c 0.218 -0.024 0.445 0.039 0.594 0.188 l 1.469 1.469 1.469 -1.469 c 0.297 -0.297 0.848 -0.246 1.219 0.125 0.371 0.371 0.422 0.922 0.125 1.219 l -1.469 1.469 1.469 1.469 c 0.297 0.297 0.246 0.848 -0.125 1.219 -0.371 0.371 -0.922 0.422 -1.219 0.125 l -1.469 -1.469 -1.469 1.469 c -0.297 0.297 -0.848 0.246 -1.219 -0.125 -0.371 -0.371 -0.422 -0.922 -0.125 -1.219 l 1.469 -1.469 -1.469 -1.469 c -0.297 -0.297 -0.246 -0.848 0.125 -1.219 0.185 -0.185 0.407 -0.288 0.625 -0.313 z" style="stroke:none"/>
  <path d="m 8.336 12 5.664 4 -1 -6 z" style="stroke:none"/>
 </g>
</svg>
